docroot/themes/custom/transac/alshaya_white_label/imgs/icons/lock-white.svg

<svg width="10" height="13" viewBox="0 0 10 13" fill="none" xmlns="http://www.w3.org/2000/svg">
<path d="M5.00011 0C2.83542 0 1.0938 1.6959 1.0938 3.79601V5.32004C0.376567 5.38848 0 5.96229 0 6.65927V11.6561C0 12.3996 0.634762 13 1.42086 13H8.57913C9.36522 13 10 12.3996 10 11.6561V6.65927C10 5.96229 9.62343 5.38383 8.9062 5.3154V3.79606C8.9062 1.69595 7.16458 4.61314e-05 4.99989 4.61314e-05L5.00011 0ZM5.00011 1.47315C6.38543 1.47315 7.50013 2.51229 7.50013 3.80529V5.31545H2.5001V3.80529C2.5001 2.51235 3.61483 1.47315 5.00011 1.47315ZM5.00011 7.23655C5.60417 7.23655 6.09391 7.69965 6.09391 8.27105C6.09391 8.63419 5.89522 8.95464 5.59584 9.13927C5.61216 9.1922 5.62509 9.24746 5.62509 9.30555V10.4878C5.62509 10.8153 5.3463 11.0789 5.00011 11.0789C4.65381 11.0789 4.37512 10.8153 4.37512 10.4878V9.30555C4.37512 9.24756 4.38806 9.19219 4.40437 9.13927C4.10498 8.95474 3.9063 8.6342 3.9063 8.27105C3.9063 7.69976 4.39605 7.23655 5.0001 7.23655H5.00011Z" fill="white"/>
</svg>

<svg viewBox="0 0 10 13" fill="none" xmlns="http://www.w3.org/2000/svg"><path d="M5 0C2.835 0 1.094 1.696 1.094 3.796V5.32C.377 5.388 0 5.962 0 6.66v4.996C0 12.4.635 13 1.42 13h7.16c.785 0 1.42-.6 1.42-1.344V6.66c0-.697-.377-1.275-1.094-1.344v-1.52C8.906 1.696 7.165 0 5 0Zm0 1.473c1.385 0 2.5 1.04 2.5 2.332v1.51h-5v-1.51c0-1.293 1.115-2.332 2.5-2.332Zm0 5.764c.604 0 1.094.463 1.094 1.034 0 .363-.199.684-.498.868.016.053.03.108.03.167v1.182c0 .327-.28.59-.626.59s-.625-.263-.625-.59V9.306c0-.058.013-.114.03-.167a1.023 1.023 0 0 1-.499-.868c0-.571.49-1.034 1.094-1.034Z" fill="#fff"/></svg>
